assets/landing-page/Asset/rupay.svg

<svg width="37" height="18" viewBox="0 0 37 18" fill="none" xmlns="http://www.w3.org/2000/svg">
<path d="M34.0385 4.71705L36.0737 8.81799L31.7954 12.9209L34.0385 4.71705Z" fill="#008C44"/>
<path d="M32.6284 4.71705L34.6606 8.81799L30.3851 12.9209L32.6284 4.71705Z" fill="#F47920"/>
<path d="M0 11.4304L2.02912 4.01167H5.27316C6.28701 4.01167 6.96427 4.17455 7.30883 4.51019C7.65092 4.84314 7.71682 5.38661 7.51061 6.15049C7.3859 6.60048 7.19634 6.9782 6.93593 7.27663C6.67764 7.5756 6.33697 7.81201 5.91747 7.98586C6.27337 8.07269 6.49977 8.2451 6.60128 8.50362C6.70226 8.76214 6.69057 9.13914 6.56798 9.63335L6.3212 10.6696L6.32049 10.6976C6.24928 10.9878 6.27036 11.1431 6.38639 11.1557L6.31164 11.4304H4.11705C4.12449 11.2559 4.13814 11.0998 4.15266 10.9687C4.16861 10.8346 4.18827 10.7307 4.20776 10.6593L4.41237 9.91848C4.51547 9.53321 4.52185 9.26444 4.42619 9.10965C4.32964 8.95073 4.11351 8.87253 3.77231 8.87253H2.85005L2.14675 11.4304H0ZM3.3064 7.20076H4.29421C4.64037 7.20076 4.89582 7.1506 5.05331 7.04687C5.21151 6.94224 5.32896 6.76552 5.39788 6.50987C5.46927 6.24991 5.45173 6.0687 5.34934 5.96568C5.24712 5.86105 5.00247 5.81017 4.61787 5.81017H3.68675L3.3064 7.20076Z" fill="#475769"/>
<path d="M13.532 5.95702L12.0361 11.4315H10.2183L10.4417 10.6295C10.1218 10.9484 9.79438 11.1906 9.46434 11.3454C9.13696 11.5028 8.79151 11.5803 8.42781 11.5803C8.12718 11.5803 7.86907 11.525 7.66127 11.4151C7.45098 11.3056 7.29438 11.1391 7.18897 10.9196C7.09544 10.7275 7.05469 10.4901 7.07063 10.2066C7.08746 9.92762 7.18454 9.45695 7.36453 8.79788L8.13976 5.95702H10.1281L9.3545 8.78458C9.24148 9.19843 9.21455 9.48931 9.26965 9.6477C9.32704 9.80752 9.48028 9.89004 9.72901 9.89004C9.9795 9.89004 10.1901 9.79799 10.3641 9.61013C10.5405 9.42387 10.6768 9.14612 10.7792 8.77649L11.5464 5.95702H13.532Z" fill="#475769"/>
<path d="M12.813 11.4304L14.84 4.01167H17.6284C18.2436 4.01167 18.7198 4.04852 19.0594 4.12942C19.3983 4.20691 19.6641 4.33275 19.8616 4.51019C20.1091 4.74229 20.2607 5.02957 20.3231 5.37421C20.3817 5.71885 20.347 6.12029 20.2186 6.59167C19.9914 7.42099 19.5934 8.05651 19.0261 8.50056C18.4571 8.93886 17.7531 9.15909 16.9129 9.15909H15.6079L14.9881 11.4304H12.813ZM16.102 7.34728H16.8032C17.2565 7.34728 17.5752 7.29047 17.762 7.18081C17.9427 7.0697 18.0711 6.87231 18.1494 6.59167C18.2277 6.30726 18.2075 6.10843 18.0892 5.99732C17.9753 5.88676 17.6842 5.83085 17.2184 5.83085H16.5187L16.102 7.34728Z" fill="#475769"/>
<path d="M22.5569 11.4296L22.5771 10.9097C22.2565 11.1533 21.9317 11.3374 21.6052 11.4524C21.2802 11.5696 20.934 11.6292 20.5632 11.6292C20.0001 11.6292 19.6073 11.4738 19.3802 11.1732C19.1559 10.8721 19.1191 10.4397 19.2721 9.88817C19.4186 9.3438 19.6792 8.94307 20.0551 8.68689C20.4289 8.42765 21.0532 8.24212 21.9291 8.12346C22.0402 8.10513 22.189 8.09038 22.3753 8.06755C23.0228 7.99151 23.3863 7.8164 23.4647 7.53073C23.5054 7.37432 23.4806 7.25891 23.3849 7.18807C23.2926 7.11454 23.1201 7.07841 22.871 7.07841C22.6643 7.07841 22.4979 7.12191 22.3615 7.21234C22.2253 7.30367 22.1236 7.43707 22.0547 7.62476H20.1161C20.2911 7.00847 20.6488 6.54285 21.1857 6.23147C21.7207 5.9147 22.4262 5.76225 23.2999 5.76225C23.7107 5.76225 24.0787 5.80126 24.4039 5.88594C24.7297 5.96702 24.9678 6.08261 25.1223 6.22248C25.3124 6.39705 25.4249 6.59606 25.4569 6.81611C25.4939 7.03562 25.4534 7.35023 25.34 7.76193L24.5061 10.814C24.4794 10.914 24.4743 11.0032 24.4888 11.0842C24.5061 11.1615 24.5394 11.2277 24.5983 11.275L24.5534 11.4296H22.5569ZM23.0402 8.98514C22.829 9.07126 22.5546 9.15378 22.2136 9.24438C21.6781 9.39018 21.3767 9.58471 21.3115 9.82543C21.2663 9.98022 21.2846 10.0994 21.3592 10.19C21.4327 10.2761 21.5604 10.3196 21.7404 10.3196C22.0704 10.3196 22.3355 10.235 22.533 10.0678C22.7311 9.89842 22.8792 9.63253 22.9828 9.26578C23.0009 9.18775 23.0168 9.13166 23.0271 9.08977L23.0402 8.98514Z" fill="#475769"/>
<path d="M24.5696 13.587L25.0109 11.9667H25.5799C25.77 11.9667 25.9195 11.9286 26.0254 11.8592C26.133 11.7871 26.2061 11.6656 26.2483 11.502C26.2694 11.4299 26.2823 11.354 26.2912 11.2679C26.2968 11.1766 26.2968 11.08 26.2912 10.9682L25.9875 5.95543H28.0002L27.969 9.27703L29.726 5.95543H31.5976L28.4914 11.4034C28.1389 12.0124 27.8827 12.4307 27.7201 12.659C27.5596 12.8845 27.4072 13.0598 27.2593 13.1784C27.0676 13.3425 26.8536 13.4589 26.6226 13.5266C26.3911 13.5959 26.0385 13.6304 25.5647 13.6304C25.4282 13.6304 25.2713 13.6277 25.1016 13.6187C24.9331 13.612 24.7533 13.6018 24.5696 13.587Z" fill="#475769"/>
</svg>

<svg xmlns="http://www.w3.org/2000/svg" width="37" height="18" fill="none" viewBox="0 0 37 18"><path fill="#008c44" d="m34.039 4.717 2.035 4.101-4.279 4.103z"/><path fill="#f47920" d="m32.628 4.717 2.033 4.101-4.276 4.103z"/><path fill="#475769" d="m0 11.43 2.03-7.418h3.243c1.014 0 1.691.163 2.036.498.342.333.408.877.202 1.64q-.186.677-.575 1.127a2.7 2.7 0 0 1-1.019.709q.533.13.684.518.151.387-.033 1.13l-.247 1.036v.028q-.108.437.065.458l-.074.274H4.117q.012-.263.036-.461.024-.201.055-.31l.204-.74q.156-.578.014-.81-.143-.236-.654-.236H2.85l-.703 2.557zM3.306 7.2h.988c.346 0 .602-.05.76-.153.158-.105.275-.281.344-.537q.106-.39-.049-.544-.154-.157-.731-.156h-.931zm10.226-1.243-1.496 5.475h-1.818l.224-.803c-.32.32-.648.562-.978.716a2.36 2.36 0 0 1-1.036.235c-.3 0-.559-.055-.767-.165a1.06 1.06 0 0 1-.472-.495q-.142-.289-.118-.713.024-.42.294-1.41l.775-2.84h1.988l-.774 2.828c-.113.413-.14.704-.084.863q.086.241.459.242a.83.83 0 0 0 .635-.28q.263-.279.415-.834l.767-2.819zm-.719 5.473 2.027-7.418h2.788q.923-.001 1.431.117c.34.078.605.204.803.381q.37.348.461.864c.059.345.024.746-.104 1.218q-.342 1.243-1.193 1.909-.853.657-2.113.658h-1.305l-.62 2.271zm3.289-4.083h.701q.679-.001.959-.166.27-.168.387-.59.118-.427-.06-.594-.172-.165-.87-.166h-.7zm6.455 4.083.02-.52a3.6 3.6 0 0 1-.972.542 3 3 0 0 1-1.042.177c-.563 0-.956-.155-1.183-.456-.224-.3-.26-.733-.108-1.285q.22-.817.783-1.201c.374-.26.998-.445 1.874-.564.111-.018.26-.033.446-.055.648-.076 1.011-.252 1.09-.537q.062-.236-.08-.343-.14-.11-.514-.11a.9.9 0 0 0-.51.134.8.8 0 0 0-.306.413h-1.939a2.26 2.26 0 0 1 1.07-1.394c.535-.316 1.24-.469 2.114-.469q.616-.001 1.104.124c.326.081.564.197.718.336q.286.263.335.594.054.329-.117.946l-.834 3.052a.6.6 0 0 0-.017.27c.017.078.05.144.11.191l-.046.155zm.483-2.445a7 7 0 0 1-.826.26q-.804.219-.902.58c-.046.155-.027.274.047.365q.111.13.381.13.496 0 .793-.252.296-.253.45-.802l.044-.176zm1.53 4.602.44-1.62h.57q.286-.002.445-.108.161-.11.223-.357.03-.106.043-.234a3 3 0 0 0 0-.3l-.303-5.013H28l-.031 3.322 1.757-3.322h1.872l-3.107 5.448q-.527.915-.77 1.256a2.6 2.6 0 0 1-.462.52q-.288.245-.636.348t-1.058.103q-.208.001-.463-.011a13 13 0 0 1-.532-.032"/></svg>
